utils/icon设计资源/icons/patch-minus-fll.svg

<?xml version="1.0" encoding="UTF-8" standalone="no"?>
<svg
   xmlns:dc="http://purl.org/dc/elements/1.1/"
   xmlns:cc="http://creativecommons.org/ns#"
   xmlns:rdf="http://www.w3.org/1999/02/22-rdf-syntax-ns#"
   xmlns:svg="http://www.w3.org/2000/svg"
   xmlns="http://www.w3.org/2000/svg"
   xmlns:sodipodi="http://sodipodi.sourceforge.net/DTD/sodipodi-0.dtd"
   xmlns:inkscape="http://www.inkscape.org/namespaces/inkscape"
   inkscape:version="1.0 (4035a4fb49, 2020-05-01)"
   sodipodi:docname="patch-minus-fll.svg"
   id="svg3714"
   version="1.1"
   fill="currentColor"
   class="bi bi-patch-minus-fll"
   viewBox="0 0 16 16"
   height="1em"
   width="1em">
  <metadata
     id="metadata3720">
    <rdf:RDF>
      <cc:Work
         rdf:about="">
        <dc:format>image/svg+xml</dc:format>
        <dc:type
           rdf:resource="http://purl.org/dc/dcmitype/StillImage" />
      </cc:Work>
    </rdf:RDF>
  </metadata>
  <defs
     id="defs3718" />
  <sodipodi:namedview
     inkscape:current-layer="svg3714"
     inkscape:window-maximized="1"
     inkscape:window-y="-9"
     inkscape:window-x="-9"
     inkscape:cy="8"
     inkscape:cx="8"
     inkscape:zoom="51.875"
     showgrid="false"
     id="namedview3716"
     inkscape:window-height="1001"
     inkscape:window-width="1920"
     inkscape:pageshadow="2"
     inkscape:pageopacity="0"
     guidetolerance="10"
     gridtolerance="10"
     objecttolerance="10"
     borderopacity="1"
     bordercolor="#666666"
     pagecolor="#ffffff" />
  <path
     d="M 8.015625 0 A 2.89 2.89 0 0 0 5.9335938 0.86914062 L 5.3105469 1.5078125 L 4.421875 1.4960938 A 2.89 2.89 0 0 0 1.4960938 4.421875 L 1.5078125 5.3105469 L 0.87109375 5.9335938 A 2.89 2.89 0 0 0 0.87109375 10.066406 L 1.5078125 10.689453 L 1.4960938 11.578125 A 2.89 2.89 0 0 0 4.421875 14.503906 L 5.3105469 14.492188 L 5.9335938 15.128906 A 2.89 2.89 0 0 0 10.066406 15.128906 L 10.689453 14.492188 L 11.578125 14.503906 A 2.89 2.89 0 0 0 14.503906 11.578125 L 14.492188 10.689453 L 15.128906 10.066406 A 2.89 2.89 0 0 0 15.128906 5.9335938 L 14.492188 5.3105469 L 14.503906 4.421875 A 2.89 2.89 0 0 0 11.578125 1.4960938 L 10.689453 1.5078125 L 10.066406 0.87109375 L 10.066406 0.86914062 A 2.89 2.89 0 0 0 8.015625 0 z M 6 7.5 L 10 7.5 A 0.5 0.5 0 0 1 10 8.5 L 6 8.5 A 0.5 0.5 0 0 1 6 7.5 z "
     style="fill:#000000;fill-opacity:1;fill-rule:evenodd"
     id="path3712" />
</svg>

<svg width="1em" height="1em" viewBox="0 0 16 16" class="bi bi-patch-minus-fll" fill="currentColor" xmlns="http://www.w3.org/2000/svg">
  <path fill-rule="evenodd" d="M10.067.87a2.89 2.89 0 0 0-4.134 0l-.622.638-.89-.011a2.89 2.89 0 0 0-2.924 2.924l.01.89-.636.622a2.89 2.89 0 0 0 0 4.134l.637.622-.011.89a2.89 2.89 0 0 0 2.924 2.924l.89-.01.622.636a2.89 2.89 0 0 0 4.134 0l.622-.637.89.011a2.89 2.89 0 0 0 2.924-2.924l-.01-.89.636-.622a2.89 2.89 0 0 0 0-4.134l-.637-.622.011-.89a2.89 2.89 0 0 0-2.924-2.924l-.89.01-.622-.636zM6 7.5a.5.5 0 0 0 0 1h4a.5.5 0 0 0 0-1H6z"/>
</svg>
